X: 26132
T: McGrath's
R: reel
M: 4/4
K: Eminor
|:EGAB AGED|EGAB d2Bd|eged BAGA|BAGD EGFG|
EGAB AGED|EGAB d2Bd|eged BAGA|BAGD E4:|
|:gfed edBG|ABAG E2DF|GFGB AGED|EGAB d4|
gfed edBG|ABAG E2DF|GFGB AGED|B,GFG E4:|

